images/mann-20hummel.svg

<svg fill="none" height="37" viewBox="0 0 100 37" width="100" xmlns="http://www.w3.org/2000/svg"><path d="m88.3333 35.95v-16.3h3.55v13.05h8.1167v3.1833h-11.6667zm-3.1166-19.5h-3.4v-6.51667h-6.6667v-3.4h6.6667v-6.4499967h3.4v6.4499967h6.6666v3.4h-6.6666zm0 3.1833v3.2h-8.8334v3.3334h7.9v3.1833h-7.9v3.4h8.9167v3.1833h-12.4667v-16.2333h12.3834zm-19.05 5.6667-4.4167 6.95-4.35-6.8833v10.5833h-3.4833v-16.3h3.7666l4.1334 6.8833 4.0666-6.8833h3.8334v16.3833h-3.55zm-7.9-19.21667v10.36667h-3.55v-16.300001h3.3333l8.05 10.000001v-10.000001h3.55v16.300001h-3.05zm-18.05 0v10.36667h-3.55v-16.300001h3.3333l8.05 10.000001v-10.000001h3.55v16.300001h-3.05zm-10.2834 6.74997h-7.1l-1.45 3.6167h-3.6166l7.0166-16.45h3.3334l7.0333 16.45h-3.7zm-3.55-8.41663-2.3166 5.21666h4.5666zm-5.2166 24.93333c0 1.8167 1.1666 3.55 3.3333 3.55h.2833c2.25 0 3.3334-1.7333 3.3334-3.55v-9.6333h3.55v9.5c0 2.3166-1.0834 7.0333-6.6 7.0333h-.95c-4.6334 0-6.6667-3.4-6.6667-7.0333v-9.5h3.65v9.6333zm-8.4-23.55-4.63337 6.95-4.63333-6.88333v10.58333h-3.4833323v-16.300001h3.8333323l4.35 6.883331 4.2-6.883331h3.8333v16.383301h-3.55v-10.7333zm-9.2167 20.3667h7.25v-6.5167h3.55v16.3833h-3.55v-6.6h-7.25v6.6h-3.55v-16.3833h3.55c0-.0167 0 6.5167 0 6.5167zm39.35.35 3.9833-6.8834h3.8334v16.3834h-3.55v-10.7334l-4.4167 6.95-4.35-6.8833v10.5833h-3.5333v-16.3h3.8333z" fill="#fff"/></svg>

<svg width="100" height="37" viewBox="0 0 100 37" fill="none" xmlns="http://www.w3.org/2000/svg">
<path d="M88.3333 35.95V19.65H91.8833V32.7H100V35.8833H88.3333V35.95ZM85.2167 16.45H81.8167V9.93333H75.15V6.53333H81.8167V0.0833333H85.2167V6.53333H91.8833V9.93333H85.2167V16.45ZM85.2167 19.6333V22.8333H76.3833V26.1667H84.2833V29.35H76.3833V32.75H85.3V35.9333H72.8333V19.7H85.2167V19.6333ZM66.1667 25.3L61.75 32.25L57.4 25.3667V35.95H53.9167V19.65H57.6833L61.8167 26.5333L65.8833 19.65H69.7167V36.0333H66.1667V25.3ZM58.2667 6.08333V16.45H54.7167V0.149999H58.05L66.1 10.15V0.149999H69.65V16.45H66.6L58.2667 6.08333ZM40.2167 6.08333V16.45H36.6667V0.149999H40L48.05 10.15V0.149999H51.6V16.45H48.55L40.2167 6.08333ZM29.9333 12.8333H22.8333L21.3833 16.45H17.7667L24.7833 0H28.1167L35.15 16.45H31.45L29.9333 12.8333ZM26.3833 4.41667L24.0667 9.63333H28.6333L26.3833 4.41667ZM21.1667 29.35C21.1667 31.1667 22.3333 32.9 24.5 32.9H24.7833C27.0333 32.9 28.1167 31.1667 28.1167 29.35V19.7167H31.6667V29.2167C31.6667 31.5333 30.5833 36.25 25.0667 36.25H24.1167C19.4833 36.25 17.45 32.85 17.45 29.2167V19.7167H21.1V29.35H21.1667ZM12.7667 5.8L8.13333 12.75L3.5 5.86667V16.45H0.0166677V0.149999H3.85L8.2 7.03333L12.4 0.149999H16.2333V16.5333H12.6833V5.8H12.7667ZM3.55 26.1667H10.8V19.65H14.35V36.0333H10.8V29.4333H3.55V36.0333H0V19.65H3.55C3.55 19.6333 3.55 26.1667 3.55 26.1667ZM42.9 26.5167L46.8833 19.6333H50.7167V36.0167H47.1667V25.2833L42.75 32.2333L38.4 25.35V35.9333H34.8667V19.6333H38.7L42.9 26.5167Z" fill="white"/>
</svg>
